X: 1
T: Fisher's Hornpipe - D
O: James Fishar 1778
R: hornpipe, reel
Z: 1997 by John Chambers <jc:trillian.mit.edu>
M: C|
L: 1/8
K: D
|: "D"dAFD "G"GBAG | "D"FDFD "G"GBAG | "D"FDFD "A7(C)"GEGE |
|: "A"ecAc egfe |"D"fdAd fagf |"A"ecAc efgf | "E7"edcB "A"A2A2 |

